X:906
T:Reel 906
M:4/4
K:Dmaj
L:1/8
AG|F2FD EA,A,G|FDFA d2cB|A>E (3EEE CEEG||FdAF G2AG|FGED FDEC|A,DFA d2cB|AFFG AFDE|FAEC D2|FA|Addc d2dB|AFdA FDEG|Addc d2Bd|edfe dcBA|Adcd dBcd|A^GAG FDDC|DCDE FGAd|cAGE D2|
